packages/symbols/svgs/duotone/triangle-exclamation-duotone.svg

<svg width="24" height="24" viewBox="0 0 24 24" fill="none" xmlns="http://www.w3.org/2000/svg">
<g clip-path="url(#clip0_1068_7762)">
<path opacity="0.5" fill-rule="evenodd" clip-rule="evenodd" d="M12.002 1.99686C11.8033 1.99686 11.6084 2.05103 11.4381 2.15354C11.2679 2.25604 11.1289 2.40299 11.036 2.57859C11.036 2.57862 11.036 2.57856 11.036 2.57859L2.12801 19.4186C2.12786 19.4189 2.12815 19.4183 2.12801 19.4186C2.04159 19.5832 1.99873 19.7682 2.00441 19.954C2.0101 20.1401 2.06386 20.3216 2.16046 20.4808C2.25707 20.64 2.39323 20.7715 2.5557 20.8625C2.75128 20.972 2.75377 20.9728 2.76965 20.9776L2.77096 20.978C2.77635 20.9797 2.84105 21 3.09202 21H20.9143C21.1007 21.0012 21.2842 20.9541 21.447 20.8632C21.6098 20.7724 21.7462 20.641 21.8431 20.4817C21.9399 20.3224 21.9938 20.1408 21.9996 19.9545C22.0054 19.7685 21.963 19.5841 21.8764 19.4194C21.8763 19.4191 21.8765 19.4196 21.8764 19.4194L12.9681 2.57868C12.9681 2.57865 12.9681 2.57872 12.9681 2.57868C12.8752 2.40309 12.7361 2.25604 12.5659 2.15354C12.3957 2.05103 12.2007 1.99686 12.002 1.99686ZM10.4063 0.440256C10.888 0.150152 11.4397 -0.00314331 12.002 -0.00314331C12.5643 -0.00314331 13.116 0.150152 13.5977 0.440256C14.0794 0.73036 14.4729 1.1463 14.7359 1.64333L23.646 18.4874C23.8937 18.9581 24.0152 19.4849 23.9987 20.0165C23.9822 20.5482 23.8282 21.0665 23.5519 21.5209C23.2755 21.9753 22.8861 22.3504 22.4217 22.6097C21.9582 22.8683 21.4357 23.0028 20.905 23H3.09202C2.75418 23 2.46118 22.9759 2.17892 22.8884C1.94185 22.8149 1.74346 22.7016 1.62288 22.6327C1.60664 22.6234 1.5918 22.6149 1.57848 22.6075C1.11485 22.3478 0.726313 21.9726 0.450646 21.5184C0.174979 21.0641 0.0215714 20.5462 0.0053428 20.0151C-0.0108858 19.4839 0.110618 18.9576 0.358035 18.4874L0.359074 18.4854L9.26807 1.64342C9.53106 1.14639 9.92461 0.730361 10.4063 0.440256Z" fill="black"/>
<path fill-rule="evenodd" clip-rule="evenodd" d="M13 8C13 7.44772 12.5523 7 12 7C11.4477 7 11 7.44772 11 8V14C11 14.5523 11.4477 15 12 15C12.5523 15 13 14.5523 13 14V8ZM13.5 17.5C13.5 18.3284 12.8284 19 12 19C11.1716 19 10.5 18.3284 10.5 17.5C10.5 16.6716 11.1716 16 12 16C12.8284 16 13.5 16.6716 13.5 17.5Z" fill="black"/>
</g>
<defs>
<clipPath id="clip0_1068_7762">
<rect width="24" height="24" fill="white"/>
</clipPath>
</defs>
</svg>

<svg width="24" height="24" viewBox="0 0 24 24" xmlns="http://www.w3.org/2000/svg"><g clip-path="url(#a)" fill-rule="evenodd" clip-rule="evenodd"><path opacity=".5" d="M12.002 1.997a1.093 1.093 0 0 0-.966.582l-8.908 16.84a1.083 1.083 0 0 0 .032 1.062c.097.159.233.29.396.381.195.11.198.11.214.116h.001c.005.002.07.022.321.022h17.822a1.078 1.078 0 0 0 .962-1.58L12.968 2.578a1.093 1.093 0 0 0-.966-.582ZM10.406.44a3.093 3.093 0 0 1 4.33 1.203l8.91 16.844A3.078 3.078 0 0 1 20.905 23H3.092c-.338 0-.63-.024-.913-.112a2.766 2.766 0 0 1-.556-.255l-.045-.025a3.08 3.08 0 0 1-1.22-4.12l.001-.003L9.27 1.643A3.094 3.094 0 0 1 10.405.44Z"/><path d="M13 8a1 1 0 1 0-2 0v6a1 1 0 1 0 2 0V8Zm.5 9.5a1.5 1.5 0 1 1-3 0 1.5 1.5 0 0 1 3 0Z"/></g><defs><clipPath id="a"><path fill="#fff" d="M0 0h24v24H0z"/></clipPath></defs></svg>
